hook/res/user_book_read_started.svg

<?xml version="1.0" encoding="UTF-8"?>
<svg xmlns="http://www.w3.org/2000/svg" xmlns:xlink="http://www.w3.org/1999/xlink" width="px" height="32px" viewBox="0 0 36 32" version="1.1">
<g id="surface1">
<path style=" stroke:none;fill-rule:nonzero;fill:rgb(0%,0%,0%);fill-opacity:1;" d="M 9.75 2 C 6.289062 2 3.050781 2.914062 1.695312 3.351562 C 0.644531 3.6875 0 4.65625 0 5.695312 L 0 25.21875 C 0 26.851562 1.5 27.980469 3 27.730469 C 4.238281 27.523438 6.425781 27.25 9.25 27.25 C 12.625 27.25 15.34375 28.84375 16.28125 29.476562 C 16.75 29.789062 17.332031 30 17.96875 30 C 18.6875 30 19.320312 29.738281 19.800781 29.382812 C 20.636719 28.769531 23.070312 27.25 26.75 27.25 C 29.730469 27.25 31.78125 27.5 32.9375 27.699219 C 34.429688 27.957031 36 26.835938 36 25.164062 L 36 5.695312 C 36 4.664062 35.355469 3.6875 34.304688 3.351562 C 32.949219 2.914062 29.710938 2 26.25 2 C 23.949219 2 21.761719 2.398438 20.164062 2.792969 C 19.363281 2.992188 18.695312 3.1875 18.230469 3.335938 C 18.148438 3.363281 18.070312 3.386719 18 3.414062 C 17.285156 3.179688 16.566406 2.972656 15.835938 2.792969 C 14.238281 2.398438 12.050781 2 9.75 2 M 16.5 6.082031 L 16.5 26.117188 C 14.875 25.261719 12.300781 24.25 9.25 24.25 C 6.570312 24.25 4.414062 24.480469 3 24.695312 L 3 6.082031 C 4.394531 5.664062 7.023438 5 9.75 5 C 11.726562 5 13.664062 5.351562 15.117188 5.707031 C 15.65625 5.835938 16.125 5.96875 16.5 6.082031 M 19.5 26.03125 L 19.5 6.082031 C 19.875 5.96875 20.34375 5.835938 20.882812 5.707031 C 22.335938 5.351562 24.273438 5 26.25 5 C 28.976562 5 31.605469 5.664062 33 6.082031 L 33 24.667969 C 31.644531 24.460938 29.570312 24.25 26.75 24.25 C 23.539062 24.25 21.074219 25.1875 19.5 26.039062 Z M 19.5 26.03125 "/>
</g>
</svg>

<svg xmlns="http://www.w3.org/2000/svg" viewBox="0 0 36 32"><path d="M9.75 2c-3.46 0-6.7.91-8.05 1.35A2.4 2.4 0 0 0 0 5.7v19.52c0 1.63 1.5 2.76 3 2.51a39 39 0 0 1 6.25-.48c3.38 0 6.1 1.6 7.03 2.23.47.3 1.05.52 1.69.52.72 0 1.35-.26 1.83-.62a12 12 0 0 1 6.95-2.13 37 37 0 0 1 6.19.45A2.6 2.6 0 0 0 36 25.16V5.7c0-1.04-.64-2.01-1.7-2.35A28 28 0 0 0 26.25 2c-2.3 0-4.49.4-6.09.8q-1.21.3-1.93.54L18 3.4q-1.06-.35-2.16-.62A27 27 0 0 0 9.75 2m6.75 4.08v20.04a16 16 0 0 0-7.25-1.87c-2.68 0-4.84.23-6.25.45V6.08C4.4 5.66 7.02 5 9.75 5a23 23 0 0 1 6.75 1.08m3 19.95V6.08q.57-.17 1.38-.37c1.46-.36 3.4-.71 5.37-.71 2.73 0 5.36.66 6.75 1.08v18.59c-1.36-.2-3.43-.42-6.25-.42-3.21 0-5.68.94-7.25 1.79Zm0 0"/></svg>
